X:20
T:Minuet de la Cour
N:page 16 on manuscript
M:3/4
L:1/8
K:F
A2 (A/B/)(A/B/) c>c | c2 B2 A2 | (FA)(FA)(FA) | (c/B/A/B/) G2 z2 | A2 (A/B/A/B/) c>c | c2 B2 A2 | (A/G/)(B/G/) F2 TE2 | F6 || G2 .G.G.G.G |
B/A/G/A/ F2 z2 | A2 AFcA | TA2 G2 z2 | c2 .c.c.c.c | d2 .d.d.d.d | e2 .e.e.e.e | (f2 .f).f.f.f | (f3 .d).e.c | (f3 .d).e.c | .d(f/d/) c2 T=B2 |
c3 cd(c | B>AG)(BcB | A>GF)(cdc | B>AG)(BcB | A>G) Ffef | e2 d2 (cd) | c2 B2 A2 | (AG)(FE)(DC) +D.C.+ |]

